!!!COM: Robert Schumann
!!!CNT: Deutsch
!!!TXO: Deutsch
!!!OTL: Lied der Suleika
!!!LYR: Willemer
!!!OPR: Myrten
!!!OPS: Op. 25
!!!ONM: No. 9
!!!ENC: Ben Fuhrman
!!!YOR: Schumann Lieder - Max Friedlaender, ed.,
!!!YOR: New York: C. F. Peters, Vol. 1
!!!ODT: 1840/
!!NB: Vocal melody and text only encoded.
!!NB: First instance of melodic material only encoded.
**kern	**silbe
*clefG2	*
*k[f#]	*
*M4/4	*
!!created: 5/12/06 14:40
!!proofed and posted: 5/12/06 14:43
!!edit time: 53 minutes
=1	=1
4r	.
{8b	{Wie
8b	mit
8cc	in-
8a	-nig-
8g	-stem
8f#	Be-
=2	=2
4a	-ha-
4g}	-gen,}
8r	.
{4g#	{Lied,
8g#	em-
=3	=3
4.a	pfind'
8a	ich
(4bS	dei-
8ee)	|
8b	-nen
=4	=4
4cc}	Sinn!}
4r	.
4r	.
{8cc	{lie-
8cc#	-be-
=5	=5
4dd}	-voll}
4r	.
8r	.
{8b	{du
8cc.	scheinst
16cc#	zu
=6	=6
4dd	sa-
4a}	-gen,}
8r	.
{4b	{dass
8dd	ich
=7	=7
8dd	ihm
8f#	zur
8b	Sei-
8e	-te
8a	bin,
8d	zur
8.f#	Sei-
16e	te
=8	=8
4d}	bin.}
4r	.
4r	.
{8.e	{Dass
16e	er
=9	=9
(8e	e-
8fn)	|
4fn}	-wig}
4r	.
{8.f#	{mein
16f#	ge-
=10	=10
(8f#	den
8g)	|
4g}	-ket,}
4r	.
{8.g	{sei-
16g	-ner
=11	=11
4.g	Lie-
8g	-be
(8g	se-
4cc)	|
8a	-lig
=12	=12
(4a	keit
4g)}	|}
4r	.
{8.g	{im-
16g	-mer
=13	=13
4g.	dar
8g	der
(8g	Fer-
4cc)	|
8a	-nen
=14	=14
4a	schen-
4g}	-ket,}
4r	.
{8.g	{die
16g	ein
=15	=15
4g.	Le-
8g	-ben
(8g	ihm
4cc)	|
8a	ge-
=16	=16
2f#}	-weiht.}
2r	.
=17	=17
8r	.
{4b	{Ja,
8b	mein
8cc	Herz,
8a	es
8g	ist
8f#	der
=18	-18
4a	Spie-
4g}	-gel,}
8r	.
{4g#	{Freund,
8g#	wo-
=19	=19
4.a	-rin
8a	du
(4bS	dich
8ee)	|
8b	er-
=20	=20
4cc}	-blickt;}
4r	.
4r	.
{8cc	{die-
8cc#	-se
=21	=21
4dd}	Brust,}
4r	.
8r	.
{8b	{wo
8.cc	dei-
16cc#	-ne
=22	=22
4dd	Sie-
4a}	-gel}
8r	.
{4b	{Kuss
8dd	auf
=23	=23
(8dd	Kuss,
8f#)	|
8b	Kuss
8e	auf
8a	Kuss
8d	her-
8.f#	ein-
16e	-ge-
=24	=24
4d}	dru2ckt.}
4r	.
4r	.
{8.e	{Su2-
16e	-sses
=25	=25
(8e	Dich-
8fn)	|
4fn}	-ten,}
4r	.
{8.f#	{lau-
16f#	-tre
=26	=26
(8f#	Wah-
8g)	|
4g}	-rheit}
4r	.
{8.g	{fes-
16g	-selt
=27	=27
4.g	mich
8g	in
(8g	Sym-
4cc)	|
8a	-pa-
=28	=28
(4a	-thie!
4g)}	|}
8r	.
{4g	{rein
8g	ver-
=29	=29
4g.	-ko2r-
8g	-pert
4.cc	Lie-
8a	-bes-
=30	=30
4a	-klar-
2g	-heit,
8.g	im
16g	Ge-
=31	=31
[2g	-wand
8g]	|
8g	der
8cc	Po-
8a	-e-
=32	=32
4f#}	-sie.}
4r	.
2r	.
=33	=33
4r	.
{8b	{Wie
8b	mit
8cc	in-
8a	-nig-
8g	-stem
8f#	Be-
=34	=34
4a	-ha-
4g}	-gen,}
8r	.
{4g#	{Lied,
8g#	em-
=35	=35
4.a	-pfind'
8a	ich
(4bS	dei-
8e)	|
8b	-nen
=36	=36
4cc}	Sinn!}
4r	.
4r	.
{8cc	{lie-
8cc#	-be-
=37	=37
4dd}	-voll}
4r	.
8r	.
{8b	{du
8.cc	scheinst
16cc#	zu
=38	=38
4dd	sa-
4a}	-gen,}
8r	.
{4b	{dass
8dd	ich
=39	=39
8cc	ihm
8a	zur
8.cc	Sei-
16b	-te
8b	bin,
8f#	zur
8.a	Sei-
16g	-te
=40	=40
4g}	bin.}
4r	.
2r	.
==	==
*-	*-
